X: 1
T: The Lassie from Stirling
T: 8x32S3C
P: Sterlini
C: Nancy Dickson
M: 4/4
L: 1/8
R: Strathspey
K: D
f>e|"D"d2 A>g f2 d>A|"G"B<dga|"D"d'2 d'>af>d a>d|"E7"f2 e2 "A7"e2 f>e|"D"d2 A>g f2 d>A|
"G"B<dgc' |"D"d'>ag>f "A7"b>ge>c|"D"d2 "G"d2 "D"d2 ||f>e|"D"d2 d<f "D7"A4|"G"B>A GA|
"D"d2 d>A F>DA>D|"E7"F2 E2 "A7"E2 f>e|"D"d2 d<f "D7"A4|"G"B>d gc'|"D7"d'>ag>f "A7"b>ge>c|"D"d2 "G"d2 "D"d2 |]
